X:1
T:Title
%%score { ( 1 3 5 ) | ( 2 4 6 ) }
L:1/8
M:4/4
K:Ab
V:1 treble nm="Grand Piano"
V:3 treble 
V:5 treble 
V:2 bass 
V:4 bass 
V:6 bass 
V:1
 z4 z2[Q:1/4=100] c2 | [DFB]4 G2 .A2 | [B,A]4 F2 GA | [B,C=EG]4 E2 FG |[M:3/4] F6 |[M:1/4] c2 | %6
[M:4/4] [DFB]4 G2 .A2 | [B,A]4 F2 GA | [B,C=EG]4 E2 D2 | C8 | F4 A4 | [B,C=EG]4 B4 | z4 c4 | %13
 [FAc]4 A4 | [DFB]4 G4 | GFGA [A,CF]4 | cBAG F=EFG | [CFA]2 [DFB]2 [FAc]4 | z2 B2 z4 | %19
 C6 [B,C=E]2 | [A,CF]6 z2 |] %21
V:2
 z4 z2 C2 | B,,2 z A C,2 z[K:treble] B | C,2 z G F,2 G,A, | C,2 z F =E,2 F,G, |[M:3/4] F,4 F,,2 | %5
[M:1/4] C2 |[M:4/4] B,,2 z A C,2 z[K:treble] B | C,2 z G F,2 G,A, | C,2 z F =E,2 =D,2 | %9
 C,2 C,2 =E,2 G,2 | z4[K:treble] F4 | C,2 =E,4 E,2 | A,G,A,B, F,2 A,2 | z4[K:treble] F4 | %14
 B,,2 D,2 C,2 [=E,G,B,C]2 | G,F,G,A, F,2 F,,2 | %16
 F,,-[F,,-B,][F,,-A,][F,,-G,] F,,-[F,,-=E,]F,,-[F,,G,] | F,2 B,,2 F,,2 F,2 | B,CB,_C, z F,=E,D, | %19
 C,2 =E,2 G,2 C,2 | F,4 F,,2 z2 |] %21
V:3
 x8 | z4 [C=E]4 | z4 [A,C]4 | x8 |[M:3/4] x6 |[M:1/4] x2 |[M:4/4] z4 [C=E]4 | z4 [A,C]4 | x8 | x8 | %10
 z4 z2 C2 | z4 z2 G,2 | AGAB z2 [CFA]2 | z4 z2 C2 | z2 F,2 z2 =E2 | x8 | x8 | x8 | %18
 [F-B]2 F2 .G2 z2 | x8 | x8 |] %21
V:4
 x8 | z2 F,2 z2 G,2[K:treble] | z2 =E,2 z4 | z2 =D,2 z4 |[M:3/4] x6 |[M:1/4] x2 | %6
[M:4/4] z2 F,2 z2 G,2[K:treble] | z2 =E,2 z4 | z2 =D,2 z4 | x8 | z2 A,4[K:treble] z2 | x8 | x8 | %13
 z2 A,4[K:treble] z2 | x8 | x8 | F,4 F,2 F,2 | x8 | B,,4 =C,4 | x8 | x8 |] %21
V:5
 x8 | x8 | x8 | x8 |[M:3/4] x6 |[M:1/4] x2 |[M:4/4] x8 | x8 | x8 | x8 | z2 C4 z2 | z2 G,4 z2 | x8 | %13
 z2 C4 z2 | x8 | x8 | x8 | x8 | dc z [_CA] [B,=C=E]-[B,CEF]ED | x8 | x8 |] %21
V:6
 x8 | x7[K:treble] x | x8 | x8 |[M:3/4] x6 |[M:1/4] x2 |[M:4/4] x7[K:treble] x | x8 | x8 | x8 | %10
 F,2 z2[K:treble] z2 A,2 | x8 | x8 | F,2 z2[K:treble] z2 A,2 | x8 | x8 | x8 | x8 | x8 | x8 | x8 |] %21

